X:6962
T:the Jolly Cobbler
O:england
R:Reel
M:C|
A:Westmorland
N:P8 1/3
K:D
B/2c/2|dcBA c2BA|dBAG AddA|\
dBAG c2BA|Bdeg fd-d2:|
|:Bdeg fd eg|Bde>g fdd>A|\
Bdeg fd eg|afge fddA:|
